dist/files/product_dashboard_logo.svg

<svg width="142" height="142" viewBox="0 0 142 142" fill="none" xmlns="http://www.w3.org/2000/svg">
<path d="M41.9432 76.6445C41.4638 76.6511 41.0852 77.041 41.0919 77.5176C41.0996 77.981 41.4771 78.3565 41.9432 78.3631H57.7234C58.2039 78.3565 58.5814 77.9667 58.5747 77.4967C58.5681 77.0278 58.1895 76.6511 57.7234 76.6445H41.9432Z" fill="white"/>
<g filter="url(#filter0_d_5335_2992)">
<circle cx="67" cy="68" r="59" fill="#152968"/>
</g>
<mask id="mask0_5335_2992" style="mask-type:luminance" maskUnits="userSpaceOnUse" x="29" y="37" width="77" height="70">
<path d="M29 37H105.091V107H29V37Z" fill="white"/>
</mask>
<g mask="url(#mask0_5335_2992)">
<path d="M32.6011 40.0194H101.477C101.815 40.0194 102.085 40.2819 102.085 40.6179V86.9464C102.085 87.2758 101.815 87.5372 101.477 87.5372H32.6011C32.2701 87.5372 32 87.2758 32 86.9464V40.6179C32 40.2819 32.2701 40.0194 32.6011 40.0194ZM30.5066 37.0391C29.6764 37.0391 29 37.7034 29 38.5292V89.0405C29 89.8663 29.6764 90.5318 30.5 90.5318C30.5066 90.5318 30.5066 90.5318 30.5066 90.5318H59.4325C60.2639 90.5318 60.9391 91.2028 60.9391 92.0286V94.741C60.9391 99.6881 56.8997 103.703 51.9204 103.703H51.2119V106.765H82.8798V103.703H82.1702C77.1921 103.703 73.1526 99.6881 73.1526 94.741V92.0286C73.1526 91.2028 73.8279 90.5318 74.6593 90.5318H103.592C104.415 90.5318 105.091 89.8663 105.091 89.0405V38.5292C105.091 37.7034 104.415 37.0391 103.592 37.0391H30.5066Z" fill="white"/>
</g>
<path d="M41.9432 73.0156C41.4638 73.0222 41.0852 73.411 41.0919 73.8876C41.0996 74.351 41.4771 74.7276 41.9432 74.7342H57.7234C58.2039 74.7276 58.5814 74.3378 58.5747 73.8678C58.5681 73.3978 58.1895 73.0222 57.7234 73.0156H41.9432Z" fill="white"/>
<path d="M50.6982 46.7852V57.1769L59.7502 62.3667C62.3572 56.9221 60.0402 50.4101 54.5617 47.8185C53.3462 47.2409 52.0355 46.8928 50.6982 46.7852Z" fill="white"/>
<path d="M48.9699 46.7852V58.1641L58.8864 63.8569C55.448 68.8249 48.6112 70.0801 43.6131 66.6626C38.6139 63.2463 37.3442 56.4521 40.7825 51.4841C42.66 48.7717 45.6666 47.0465 48.9699 46.7852Z" fill="white"/>
<path d="M82.6969 60.3407L78.9276 54.4052C78.4217 53.6003 77.3534 53.3653 76.5431 53.8682C76.3881 53.9627 76.2531 54.0835 76.1379 54.224L71.2738 60.0453L69.9365 58.9438L74.8073 53.1237C76.0294 51.6664 78.2113 51.4655 79.6781 52.68C79.9549 52.9084 80.1984 53.1841 80.3943 53.4861L84.1637 59.4204C84.6762 60.2265 85.7367 60.4681 86.5481 59.9574C86.7297 59.8432 86.8858 59.7027 87.0075 59.5346L92.6001 52.1101L91.7699 51.4918L94.9314 50.4453L94.8097 53.7617L93.985 53.1434L88.3924 60.5614C87.25 62.0856 85.0814 62.3942 83.5548 61.2598C83.2172 61.0051 82.9272 60.6965 82.7035 60.3407H82.6969Z" fill="white"/>
<path d="M90.9668 59.8672H94.2623V75.4553H90.9668V59.8672Z" fill="white"/>
<path d="M83.3262 75.4506V66.582H86.6295V75.4506H83.3262Z" fill="white"/>
<path d="M75.6855 75.4505V57.8945H78.9888V75.4505H75.6855Z" fill="white"/>
<path d="M71.3504 75.4515H68.0537V62.8438H71.3504V75.4515Z" fill="white"/>
<defs>
<filter id="filter0_d_5335_2992" x="0.6" y="0.6" width="140.8" height="140.8" filterUnits="userSpaceOnUse" color-interpolation-filters="sRGB">
<feFlood flood-opacity="0" result="BackgroundImageFix"/>
<feColorMatrix in="SourceAlpha" type="matrix" values="0 0 0 0 0 0 0 0 0 0 0 0 0 0 0 0 0 0 127 0" result="hardAlpha"/>
<feOffset dx="4" dy="3"/>
<feGaussianBlur stdDeviation="5.7"/>
<feComposite in2="hardAlpha" operator="out"/>
<feColorMatrix type="matrix" values="0 0 0 0 0.128333 0 0 0 0 0.119778 0 0 0 0 0.119778 0 0 0 0.25 0"/>
<feBlend mode="normal" in2="BackgroundImageFix" result="effect1_dropShadow_5335_2992"/>
<feBlend mode="normal" in="SourceGraphic" in2="effect1_dropShadow_5335_2992" result="shape"/>
</filter>
</defs>
</svg>

<svg xmlns="http://www.w3.org/2000/svg" width="142" height="142" fill="none"><path fill="#fff" d="M41.943 76.644a.86.86 0 0 0 0 1.72h15.78a.858.858 0 0 0 .852-.867.864.864 0 0 0-.852-.853h-15.78Z"/><g filter="url(#a)"><circle cx="67" cy="68" r="59" fill="#152968"/></g><mask id="b" width="77" height="70" x="29" y="37" maskUnits="userSpaceOnUse" style="mask-type:luminance"><path fill="#fff" d="M29 37h76.091v70H29V37Z"/></mask><g mask="url(#b)"><path fill="#fff" d="M32.601 40.02h68.876c.338 0 .608.262.608.598v46.328c0 .33-.27.591-.608.591H32.601a.595.595 0 0 1-.601-.59v-46.33c0-.335.27-.598.601-.598Zm-2.094-2.98c-.83 0-1.507.663-1.507 1.49v50.51c0 .826.676 1.492 1.5 1.492H59.432c.832 0 1.507.67 1.507 1.497v2.712c0 4.947-4.04 8.962-9.019 8.962h-.708v3.062H82.88v-3.062h-.71c-4.978 0-9.017-4.015-9.017-8.962v-2.712c0-.826.675-1.497 1.506-1.497h28.933c.823 0 1.499-.666 1.499-1.492V38.53c0-.827-.676-1.49-1.499-1.49H30.507Z"/></g><path fill="#fff" d="M41.943 73.016a.859.859 0 0 0 0 1.718h15.78a.858.858 0 0 0 .852-.866.863.863 0 0 0-.852-.852h-15.78ZM50.698 46.785v10.392l9.052 5.19c2.607-5.445.29-11.957-5.188-14.548a11.072 11.072 0 0 0-3.864-1.034Z"/><path fill="#fff" d="M48.97 46.785v11.38l9.916 5.692c-3.438 4.968-10.275 6.223-15.273 2.806-5-3.417-6.269-10.21-2.83-15.179a11.007 11.007 0 0 1 8.187-4.699ZM82.697 60.34l-3.77-5.935a1.735 1.735 0 0 0-2.79-.181l-4.863 5.821-1.338-1.101 4.871-5.82a3.475 3.475 0 0 1 5.587.362l3.77 5.934a1.728 1.728 0 0 0 2.384.537c.182-.114.338-.254.46-.422L92.6 52.11l-.83-.618 3.161-1.047-.121 3.317-.825-.619-5.593 7.418a3.468 3.468 0 0 1-4.837.699 3.464 3.464 0 0 1-.852-.92h-.006ZM90.967 59.867h3.295v15.588h-3.295V59.867ZM83.326 75.45v-8.868h3.303v8.869h-3.303Z"/><path fill="#fff" d="M75.686 75.45V57.895h3.303v17.557h-3.303ZM71.35 75.451h-3.296V62.844h3.296V75.45Z"/><defs><filter id="a" width="140.8" height="140.8" x=".6" y=".6" color-interpolation-filters="sRGB" filterUnits="userSpaceOnUse"><feFlood flood-opacity="0" result="BackgroundImageFix"/><feColorMatrix in="SourceAlpha" result="hardAlpha" values="0 0 0 0 0 0 0 0 0 0 0 0 0 0 0 0 0 0 127 0"/><feOffset dx="4" dy="3"/><feGaussianBlur stdDeviation="5.7"/><feComposite in2="hardAlpha" operator="out"/><feColorMatrix values="0 0 0 0 0.128333 0 0 0 0 0.119778 0 0 0 0 0.119778 0 0 0 0.25 0"/><feBlend in2="BackgroundImageFix" result="effect1_dropShadow_5335_2992"/><feBlend in="SourceGraphic" in2="effect1_dropShadow_5335_2992" result="shape"/></filter></defs></svg>
